Sources/FrostedUI/Resources/Icons.xcassets/codeblock20.imageset/codeblock-20.svg

<svg width="20" height="20" viewBox="0 0 20 20" fill="none" xmlns="http://www.w3.org/2000/svg" data-fui-icon="true">
  <path
    d="M6.40625 9.40724C6.80634 9.51444 7.25764 9.2898 7.41406 8.90627L9.69336 3.31935C9.84974 2.93589 9.65189 2.53798 9.25195 2.43068C8.85195 2.32354 8.40063 2.54729 8.24414 2.93068L5.96582 8.51857C5.80952 8.90198 6.00639 9.29992 6.40625 9.40724ZM14.4492 16.3379C14.9034 16.3379 15.29 16.3393 15.6055 16.3135C15.9296 16.287 16.2454 16.2287 16.5469 16.0752C17.0015 15.8436 17.3709 15.473 17.6025 15.0186C17.7562 14.7171 17.8143 14.4013 17.8408 14.0772C17.8666 13.7618 17.8662 13.3759 17.8662 12.9219V6.10939C17.8662 5.68389 17.8664 5.32157 17.8438 5.02541C17.8204 4.72143 17.7691 4.42501 17.6338 4.13869C17.3947 3.63326 16.9879 3.22637 16.4824 2.98732C16.1961 2.85193 15.8997 2.80068 15.5957 2.77736C15.2995 2.75467 14.9373 2.7549 14.5117 2.7549H13.7588C13.3447 2.75504 13.0088 3.09077 13.0088 3.5049C13.009 3.91885 13.3448 4.25476 13.7588 4.2549H14.5117C14.9601 4.2549 15.2549 4.25523 15.4805 4.27248C15.698 4.28915 15.79 4.31829 15.8418 4.34279C16.0333 4.43345 16.1877 4.58777 16.2783 4.77931C16.3028 4.83117 16.332 4.92328 16.3486 5.14064C16.3659 5.36615 16.3662 5.66104 16.3662 6.10939V12.9219C16.3662 13.4005 16.3653 13.7149 16.3457 13.9551C16.3268 14.1864 16.2946 14.2831 16.2666 14.3379C16.1788 14.5101 16.0383 14.6505 15.8662 14.7383H15.8652C15.8102 14.7662 15.7138 14.7995 15.4834 14.8184C15.2431 14.838 14.9281 14.8379 14.4492 14.8379L7.69922 14.8379C7.22053 14.8379 6.9062 14.838 6.66602 14.8184C6.43463 14.7995 6.33807 14.7663 6.2832 14.7383L6.16016 14.6631C6.04396 14.5786 5.94868 14.4671 5.88281 14.3379L5.86133 14.2871C5.83945 14.2261 5.81691 14.1284 5.80273 13.9551C5.78312 13.7149 5.7832 13.4005 5.7832 12.9219L5.7832 10.8858C5.7832 10.4717 5.44727 10.1359 5.0332 10.1358C4.61911 10.1359 4.2832 10.4716 4.2832 10.8858L4.2832 12.9219C4.2832 13.3758 4.28186 13.7618 4.30762 14.0772C4.33412 14.4012 4.39237 14.7172 4.5459 15.0186C4.77756 15.4732 5.14789 15.8436 5.60254 16.0752C5.90399 16.2288 6.21984 16.287 6.54395 16.3135C6.85933 16.3392 7.24523 16.3379 7.69922 16.3379H14.4492ZM4.18457 8.28127C4.49214 8.5586 4.96673 8.53408 5.24414 8.22658C5.5215 7.91901 5.49697 7.44442 5.18945 7.16701L3.88867 5.99318L3.88672 5.99123L3.88867 5.99025L5.18945 4.81642C5.49673 4.53907 5.5212 4.06535 5.24414 3.75783C4.96674 3.45026 4.49216 3.42577 4.18457 3.70314L2.88379 4.87599C2.20554 5.48771 2.20554 6.49572 2.88379 7.10744L4.18457 8.28127ZM10.415 8.22658C10.6924 8.53375 11.1661 8.55827 11.4736 8.28127L12.7754 7.10744C13.4534 6.49571 13.4535 5.48764 12.7754 4.87599L11.4736 3.70314C11.1661 3.42578 10.6924 3.4503 10.415 3.75783C10.1377 4.06542 10.1622 4.53902 10.4697 4.81642L11.7705 5.99025L11.7715 5.99123L11.7705 5.99318L10.4697 7.16701C10.1621 7.44443 10.1376 7.91899 10.415 8.22658Z"
    fill="currentColor"
  />
</svg>

<svg xmlns="http://www.w3.org/2000/svg" width="20" height="20" fill="none" data-fui-icon="true" viewBox="0 0 20 20"><path fill="currentColor" d="M6.406 9.407a.87.87 0 0 0 1.008-.5l2.28-5.588a.645.645 0 0 0-.442-.888.87.87 0 0 0-1.008.5L5.966 8.519a.645.645 0 0 0 .44.888m8.043 6.93c.454 0 .841.002 1.156-.023.325-.027.64-.085.942-.239a2.4 2.4 0 0 0 1.055-1.056c.154-.302.212-.618.239-.942.026-.315.025-.701.025-1.155V6.109c0-.425 0-.787-.022-1.084a2.5 2.5 0 0 0-.21-.886 2.42 2.42 0 0 0-1.152-1.152 2.5 2.5 0 0 0-.886-.21c-.296-.022-.659-.022-1.084-.022h-.753a.75.75 0 0 0 0 1.5h.753c.448 0 .743 0 .968.017.218.017.31.046.362.07.191.091.346.246.436.437.025.052.054.144.07.362.018.225.018.52.018.968v6.813c0 .478 0 .793-.02 1.033-.02.231-.051.328-.08.383a.9.9 0 0 1-.4.4c-.056.028-.152.062-.383.08-.24.02-.555.02-1.034.02H7.7c-.478 0-.793 0-1.033-.02-.231-.018-.328-.052-.383-.08l-.123-.075a.9.9 0 0 1-.277-.325l-.022-.05a1.3 1.3 0 0 1-.058-.333c-.02-.24-.02-.555-.02-1.033v-2.036a.75.75 0 0 0-1.5 0v2.036c0 .454-.001.84.025 1.155.026.324.084.64.238.942a2.42 2.42 0 0 0 1.057 1.056c.301.154.617.212.941.239.315.025.701.024 1.155.024zM4.185 8.282a.75.75 0 0 0 1.004-1.114l-1.3-1.174-.002-.002h.002l1.3-1.175a.75.75 0 1 0-1.004-1.113L2.884 4.876a1.478 1.478 0 0 0 0 2.231zm6.23-.054a.75.75 0 0 0 1.059.054l1.301-1.174a1.478 1.478 0 0 0 0-2.231l-1.301-1.173a.75.75 0 1 0-1.004 1.113l1.3 1.174.002.001-.002.002-1.3 1.174a.75.75 0 0 0-.055 1.06"/></svg>
